!!!OTL: Druimín, S. 81
!!!id: I0543
**kern
*clefG2
*k[]
*e:
{8b
=1
8b
8b
16cc
16dd
4ee}
=2
{8ee
=3
8ee
8dd
8cc
4b}
=4
{8cc
=5
8cc
8dd
8cc
8cc
8b}
=6
{8a
=7
8a
8g
8a
4dd
8b}
=8
{8ee
8dd
8b
8b
8a
8g
=9
8a
8g
8e
4e}
==
*-
!!!minrhy: 16
!!!meters: 6/8 ]  ZZ[5
!!!cut: Druimín, S. 81
!!!reg: Irland
!!!trd: O'SULLIVAN, Donal: Song of the Irish
!!!rhy1: X_  X_X_XXX__
!!!rhy2: X_  X_X_X_X__
!!!key: I0543  16  E 6/8 ]  ZZ[5
!!!mod: SECHSTONSKALA MOLL ?]  AMBITUS[8
!!!kad: +15551
!!!akz: 5+1_+15_6b6b_47b_+1541_
!!!fot: 'a__b__c__d__e__
!!!for: 'a__b__bw_bw_bw_
!!!fok: '/__\__-__^a_\__
!! PHRAS[VORWIEGEND AUFTAKTIG]
!!!fkt: Klagelied
!! IRISCHE V
!! PR[19] 2K[7] 2G[26] 3K[11] 3G[0] 4A[0] 4Ü[0] 5A[0] 6K[0] 6G[0]
!! 7K[0] 7G[0] 8A[0] MEHR[0] SI[44] ABS[54] SR[33] SP[11]
!! ST[16] 2k[4] 2g[19] 3k[11] 3g[0] 4d[4] 4ü[0] 5d[0] 6k[0] 6g[0]
!! 7k[0] 7g[0] 8d[0] mehr[0] si[37] dm[+7] sr[22] sp[15]
!! 1F[15] 2F[18] 3F[42] 4F[11] LF[0] 2P[15] 3P[0] 4P[0] TRI[0] DF[5] AB[55]
!! TF[0] U3K[0] U3[0] U4[0] U4Ü[0] U5[0] U6K[0] U6[0] U7K[0] U7[0]
!! N1[24] N2K[0] N2[11] N3K[15] N3[0] N4[15] N4Ü[0] N5[18] N6K[0] N6[0]
!!!n7k: 11] N7[0] O1[7] O2K[0] O2[0] O3K[0] O3[0] HÖ[0
